T: Pride Of Erin, The
M: 6/8
L: 1/8
K: Edor
AEA cBA | a^ga edc | BAG gag | edB dcB |A^GA cBA | a^ga edc | A/B/cG gag | edB A2 :|aea c'ba | gef gab | age edB | A/B/cA G2 B |[1 A^GA cBA | a^ga edc | A/B/cG gag | edB A2 :|[2 AGE cBA | dcd egb | age dBG | edB A2 |]AAA cBA | aaa edB | BAG gag | edB dBG |AAA cBA | aaa edB | BAG gag | edB A2 :|a2 b c'ba | gef gab | a2 e edB | A2 e AeA |AAA cBA | aaa edB | BAG gag | edB A2 :|
